src/assets/icons/Values__simple.svg

<svg width="24" height="21" viewBox="0 0 24 21" fill="none" xmlns="http://www.w3.org/2000/svg">
<path fill-rule="evenodd" clip-rule="evenodd" d="M4.09859 1.93268C2.38729 1.93268 1 3.31996 1 5.03127V17.4256C1 19.1369 2.38729 20.5242 4.09859 20.5242H16.493C18.2043 20.5242 19.5915 19.1369 19.5915 17.4256V5.03127C19.5915 4.5314 19.4732 4.05917 19.263 3.64109C18.7335 2.54423 17.7338 2.17881 17.5736 2.12634C17.2372 2.00112 16.8731 1.93268 16.493 1.93268H4.09859ZM17.5736 2.12634C17.5594 2.12166 17.5518 2.11947 17.5518 2.11947C15.9907 3.57577 14.8396 4.85637 13.7132 6.10955C12.9984 6.90473 12.2936 7.68886 11.5002 8.49984L10.027 6.74637C8.91997 5.47609 7.00353 5.35316 5.74648 6.47182C4.48943 7.59047 4.36779 9.52709 5.47479 10.7974L9.57521 15.4918C10.153 16.1548 10.9857 16.5336 11.8599 16.5311C12.7341 16.5286 13.5647 16.145 14.1387 15.4788L19.5912 9.21426V5.18614C19.5912 4.55609 19.4595 4.04821 19.263 3.64109C18.9133 2.94578 18.3096 2.40023 17.5736 2.12634Z" fill="url(#paint0_linear_35_11)"/>
<path d="M17.5518 2.11947L17.621 1.87925L17.4848 1.84001L17.3812 1.93667L17.5518 2.11947ZM13.7132 6.10955L13.8991 6.27667L13.7132 6.10955ZM11.5002 8.49984L11.3088 8.66066L11.4861 8.87173L11.6789 8.67467L11.5002 8.49984ZM10.027 6.74637L10.2184 6.58553L10.2154 6.58212L10.027 6.74637ZM5.74648 6.47182L5.58029 6.28506L5.74648 6.47182ZM5.47479 10.7974L5.28632 10.9616L5.2865 10.9618L5.47479 10.7974ZM9.57521 15.4918L9.76368 15.3276L9.7635 15.3273L9.57521 15.4918ZM11.8599 16.5311L11.8606 16.7811L11.8599 16.5311ZM14.1387 15.4788L13.9501 15.3146L13.9493 15.3156L14.1387 15.4788ZM19.5912 9.21426L19.7798 9.37839L19.8412 9.30782V9.21426H19.5912ZM1.25 5.03127C1.25 3.45804 2.52536 2.18268 4.09859 2.18268V1.68268C2.24922 1.68268 0.75 3.18189 0.75 5.03127H1.25ZM1.25 17.4256V5.03127H0.75V17.4256H1.25ZM4.09859 20.2742C2.52536 20.2742 1.25 18.9989 1.25 17.4256H0.75C0.75 19.275 2.24921 20.7742 4.09859 20.7742V20.2742ZM16.493 20.2742H4.09859V20.7742H16.493V20.2742ZM19.3415 17.4256C19.3415 18.9989 18.0662 20.2742 16.493 20.2742V20.7742C18.3423 20.7742 19.8415 19.275 19.8415 17.4256H19.3415ZM19.3415 5.03127V17.4256H19.8415V5.03127H19.3415ZM19.0396 3.75341C19.2327 4.13743 19.3415 4.57128 19.3415 5.03127H19.8415C19.8415 4.49152 19.7137 3.98092 19.4863 3.52878L19.0396 3.75341ZM17.4958 2.36391C17.6334 2.40902 18.5528 2.74496 19.0378 3.74978L19.4881 3.53241C18.9142 2.3435 17.8341 1.94861 17.6515 1.88877L17.4958 2.36391ZM16.493 2.18268C16.8428 2.18268 17.1774 2.24564 17.4864 2.36064L17.6608 1.89204C17.2969 1.75659 16.9033 1.68268 16.493 1.68268V2.18268ZM4.09859 2.18268H16.493V1.68268H4.09859V2.18268ZM17.5518 2.11947C17.4825 2.35969 17.4825 2.35969 17.4825 2.35969C17.4825 2.35969 17.4825 2.35969 17.4825 2.35969C17.4825 2.35968 17.4825 2.35968 17.4825 2.35968C17.4824 2.35967 17.4824 2.35966 17.4824 2.35966C17.4824 2.35965 17.4823 2.35964 17.4823 2.35963C17.4822 2.35961 17.4822 2.35959 17.4821 2.35957C17.482 2.35954 17.4819 2.35951 17.4818 2.3595C17.4817 2.35946 17.4817 2.35947 17.4819 2.3595C17.4821 2.35957 17.4828 2.35978 17.4839 2.36012C17.4862 2.36081 17.4902 2.36206 17.4958 2.36391L17.6515 1.88877C17.6429 1.88594 17.6359 1.88376 17.6308 1.88218C17.6282 1.8814 17.6261 1.88076 17.6245 1.88028C17.6237 1.88003 17.623 1.87983 17.6224 1.87966C17.6221 1.87957 17.6218 1.87949 17.6216 1.87943C17.6215 1.87939 17.6214 1.87936 17.6213 1.87933C17.6212 1.87932 17.6212 1.8793 17.6211 1.87929C17.6211 1.87928 17.6211 1.87928 17.6211 1.87927C17.6211 1.87927 17.621 1.87926 17.621 1.87926C17.621 1.87926 17.621 1.87926 17.621 1.87926C17.621 1.87925 17.621 1.87925 17.5518 2.11947ZM13.8991 6.27667C15.0255 5.02352 16.1701 3.7503 17.7223 2.30228L17.3812 1.93667C15.8113 3.40124 14.6537 4.68922 13.5273 5.94242L13.8991 6.27667ZM11.6789 8.67467C12.4765 7.85935 13.1847 7.0714 13.8991 6.27667L13.5273 5.94242C12.8121 6.73805 12.1106 7.51837 11.3215 8.32502L11.6789 8.67467ZM9.83556 6.90719L11.3088 8.66066L11.6916 8.33903L10.2184 6.58555L9.83556 6.90719ZM5.91268 6.65858C7.06559 5.6326 8.82267 5.74495 9.8385 6.91062L10.2154 6.58212C9.01728 5.20722 6.94148 5.07373 5.58029 6.28506L5.91268 6.65858ZM5.66327 10.6331C4.64611 9.46594 4.75825 7.68591 5.91268 6.65858L5.58029 6.28506C4.22062 7.49503 4.08947 9.58824 5.28632 10.9616L5.66327 10.6331ZM9.7635 15.3273L5.66308 10.6329L5.2865 10.9618L9.38692 15.6563L9.7635 15.3273ZM11.8592 16.2811C11.058 16.2834 10.2941 15.9362 9.76368 15.3276L9.38673 15.656C10.0118 16.3733 10.9134 16.7838 11.8606 16.7811L11.8592 16.2811ZM13.9493 15.3156C13.4223 15.9273 12.6603 16.2788 11.8592 16.2811L11.8606 16.7811C12.8078 16.7784 13.7071 16.3627 14.3281 15.6419L13.9493 15.3156ZM19.4027 9.05012L13.9501 15.3146L14.3273 15.6429L19.7798 9.37839L19.4027 9.05012ZM19.3412 5.18614V9.21426H19.8412V5.18614H19.3412ZM19.0378 3.74978C19.2173 4.12165 19.3412 4.5922 19.3412 5.18614H19.8412C19.8412 4.51998 19.7016 3.97477 19.4881 3.53241L19.0378 3.74978ZM17.4864 2.36064C18.1627 2.61234 18.7181 3.11404 19.0396 3.75341L19.4863 3.52878C19.1085 2.77753 18.4564 2.18812 17.6608 1.89204L17.4864 2.36064Z" fill="white"/>
<path fill-rule="evenodd" clip-rule="evenodd" d="M22.3475 1.45579C23.1392 2.12815 23.2222 3.29925 22.5329 4.07151L12.8963 14.3635C12.5365 14.7665 12.016 14.9985 11.4682 15.0001C10.9204 15.0016 10.3985 14.7724 10.0364 14.3714L6.32998 10.1168C5.63625 9.34833 5.71248 8.17678 6.50024 7.50006C7.28801 6.82334 8.48899 6.8977 9.18272 7.66615L11.4547 10.3317L19.666 1.63668C20.3553 0.864422 21.5558 0.783435 22.3475 1.45579Z" fill="url(#paint1_linear_35_11)" stroke="white" stroke-width="0.5"/>
<defs>
<linearGradient id="paint0_linear_35_11" x1="2.72333" y1="0.247053" x2="26.5692" y2="7.86449" gradientUnits="userSpaceOnUse">
<stop stop-color="#C54A92"/>
<stop offset="1" stop-color="#2E62EB"/>
</linearGradient>
<linearGradient id="paint1_linear_35_11" x1="7.37188" y1="1.91272" x2="25.4416" y2="9.01358" gradientUnits="userSpaceOnUse">
<stop stop-color="#C54A92"/>
<stop offset="1" stop-color="#2E62EB"/>
</linearGradient>
</defs>
</svg>

<svg width="24" height="21" fill="none" xmlns="http://www.w3.org/2000/svg"><path fill-rule="evenodd" clip-rule="evenodd" d="M4.099 1.933A3.099 3.099 0 0 0 1 5.03v12.395a3.099 3.099 0 0 0 3.099 3.098h12.394a3.099 3.099 0 0 0 3.099-3.098V5.03c0-.5-.119-.972-.329-1.39a3.02 3.02 0 0 0-1.69-1.515 3.091 3.091 0 0 0-1.08-.193H4.099Zm13.475.193a.676.676 0 0 0-.022-.007c-1.561 1.457-2.712 2.737-3.839 3.99-.715.796-1.42 1.58-2.213 2.39l-1.473-1.753a3.01 3.01 0 0 0-4.28-.274 3.087 3.087 0 0 0-.272 4.325l4.1 4.695a3.02 3.02 0 0 0 2.285 1.04 3.02 3.02 0 0 0 2.279-1.053l5.452-6.265V5.186c0-.63-.132-1.138-.328-1.545a3.11 3.11 0 0 0-1.69-1.515Z" fill="url(#a)"/><path d="m17.552 2.12.069-.24-.136-.04-.104.097.17.182Zm-3.839 3.99.186.167-.186-.167ZM11.5 8.5l-.191.16.177.212.193-.197L11.5 8.5Zm-1.473-1.754.191-.16-.003-.004-.188.164Zm-4.28-.274-.167-.187.166.187Zm-.272 4.325-.189.165.189-.165Zm4.1 4.695.189-.164-.189.164Zm2.285 1.04v.25-.25Zm2.279-1.053-.189-.164.189.164Zm5.452-6.265.189.164.061-.07v-.094h-.25ZM1.25 5.031a2.849 2.849 0 0 1 2.849-2.848v-.5C2.249 1.683.75 3.182.75 5.03h.5Zm0 12.395V5.03h-.5v12.395h.5Zm2.849 2.848a2.849 2.849 0 0 1-2.849-2.848h-.5c0 1.849 1.5 3.348 3.349 3.348v-.5Zm12.394 0H4.099v.5h12.394v-.5Zm2.849-2.848a2.848 2.848 0 0 1-2.849 2.848v.5c1.85 0 3.349-1.499 3.349-3.348h-.5Zm0-12.395v12.395h.5V5.03h-.5Zm-.302-1.278c.193.384.302.818.302 1.278h.5c0-.54-.128-1.05-.356-1.502l-.446.224Zm-1.544-1.39a2.77 2.77 0 0 1 1.542 1.387l.45-.218a3.269 3.269 0 0 0-1.837-1.643l-.155.475Zm-1.003-.18c.35 0 .684.063.993.178l.175-.469a3.342 3.342 0 0 0-1.168-.21v.5Zm-12.394 0h12.394v-.5H4.099v.5Zm13.453-.064-.07.24.002.001.012.004.155-.475a1.196 1.196 0 0 0-.02-.007l-.006-.002h-.004l-.07.24Zm-3.653 4.158c1.127-1.253 2.271-2.527 3.823-3.975l-.34-.365c-1.57 1.464-2.728 2.752-3.855 4.005l.372.335Zm-2.22 2.398c.797-.816 1.506-1.604 2.22-2.398l-.372-.335a75.176 75.176 0 0 1-2.205 2.383l.357.35ZM9.836 6.907l1.473 1.754.383-.322-1.474-1.753-.382.321ZM5.913 6.66a2.76 2.76 0 0 1 3.925.252l.377-.329a3.26 3.26 0 0 0-4.635-.297l.333.374Zm-.25 3.974a2.837 2.837 0 0 1 .25-3.974l-.333-.374a3.337 3.337 0 0 0-.294 4.677l.377-.329Zm4.1 4.694-4.1-4.694-.377.329 4.1 4.694.378-.329Zm2.096.954a2.77 2.77 0 0 1-2.095-.953l-.377.328a3.27 3.27 0 0 0 2.474 1.125l-.002-.5Zm2.09-.965a2.77 2.77 0 0 1-2.09.965l.002.5a3.27 3.27 0 0 0 2.467-1.14l-.379-.325Zm5.454-6.266-5.453 6.265.377.328 5.453-6.265-.377-.328Zm-.062-3.864v4.028h.5V5.186h-.5Zm-.303-1.436c.18.372.303.842.303 1.436h.5c0-.666-.14-1.211-.353-1.654l-.45.218Zm-1.552-1.39a2.86 2.86 0 0 1 1.554 1.393l.446-.224a3.36 3.36 0 0 0-1.825-1.637l-.175.469Z" fill="#fff"/><path fill-rule="evenodd" clip-rule="evenodd" d="M22.348 1.456c.791.672.874 1.843.185 2.616l-9.637 10.291c-.36.404-.88.636-1.428.637a1.922 1.922 0 0 1-1.432-.629L6.33 10.117A1.823 1.823 0 0 1 6.5 7.5a1.934 1.934 0 0 1 2.683.166l2.272 2.666 8.211-8.695a1.934 1.934 0 0 1 2.681-.181Z" fill="url(#b)" stroke="#fff" stroke-width=".5"/><defs><linearGradient id="a" x1="2.723" y1=".247" x2="26.569" y2="7.864" gradientUnits="userSpaceOnUse"><stop stop-color="#C54A92"/><stop offset="1" stop-color="#2E62EB"/></linearGradient><linearGradient id="b" x1="7.372" y1="1.913" x2="25.442" y2="9.014" gradientUnits="userSpaceOnUse"><stop stop-color="#C54A92"/><stop offset="1" stop-color="#2E62EB"/></linearGradient></defs></svg>
